src/main/webapp/resources/showcase/images/primefaces-logo.svg

<svg width="171" height="40" viewBox="0 0 171 40" fill="none" xmlns="http://www.w3.org/2000/svg">
<path fill-rule="evenodd" clip-rule="evenodd" d="M0 14.7056L4.51016 19.2813V30.855L7.21691 33.5471H163.277L165.982 30.855V19.1918L170.493 14.7056H0Z" fill="#263238"/>
<mask id="mask0" mask-type="alpha" maskUnits="userSpaceOnUse" x="0" y="0" width="171" height="39">
<path fill-rule="evenodd" clip-rule="evenodd" d="M0 38.6022H170.696V0.461395H0V38.6022Z" fill="white"/>
</mask>
<g mask="url(#mask0)">
<path fill-rule="evenodd" clip-rule="evenodd" d="M12.071 23.6498H18.7046V20.8695H12.071V23.6498ZM18.8342 18.3498C20.1674 18.3498 21.257 19.439 21.257 20.756V23.7799C21.257 25.0969 20.1674 26.1861 18.8342 26.1861L12.071 26.2026C12.1036 26.2026 12.1197 26.2348 12.1197 26.3C12.1197 26.3 12.0871 26.3 12.071 26.2835V30.0389H9.55084V18.3498H18.8342Z" fill="#40C4FF"/>
<path fill-rule="evenodd" clip-rule="evenodd" d="M24.9136 23.6498H31.5467V20.8695H24.9136V23.6498ZM34.0991 23.7799C34.0991 25.0969 33.01 26.1861 31.6768 26.1861H31.5633C32.3919 27.1617 33.2866 28.2021 34.0991 29.1773V30.0389H31.498L28.2628 26.1861L24.9136 26.2026C24.9458 26.2026 24.9619 26.2348 24.9619 26.3C24.9619 26.3 24.9297 26.3 24.9136 26.2835V30.0389H22.3934V18.3498H31.6768C33.01 18.3498 34.0991 19.439 34.0991 20.756V23.7799Z" fill="#40C4FF"/>
<path fill-rule="evenodd" clip-rule="evenodd" d="M35.8375 30.0394H38.3742V18.3333H35.8375V30.0394Z" fill="#40C4FF"/>
<path fill-rule="evenodd" clip-rule="evenodd" d="M49.9169 18.3331H52.5345V30.0392H49.9978V22.1864C48.6812 23.7471 47.2667 25.4708 45.9657 26.9988L41.918 22.203V30.0392H39.3973V18.3331H41.9993L45.9657 23.0646L49.9169 18.3331Z" fill="#40C4FF"/>
<path fill-rule="evenodd" clip-rule="evenodd" d="M65.3279 20.8696H57.0693V22.9183H63.7186V25.455H57.0693V27.5032H65.3279V30.039H54.5165V18.3329H65.3279V20.8696Z" fill="#40C4FF"/>
<path fill-rule="evenodd" clip-rule="evenodd" d="M109.254 18.3331V20.8698H100.994V22.9185H107.644V25.4547H100.994V30.0392H98.4422V18.3331H109.254Z" fill="#ECEFF1"/>
<path fill-rule="evenodd" clip-rule="evenodd" d="M112.715 23.7312H119.349V20.8695H112.715V23.7312ZM119.479 18.3333C120.812 18.3333 121.902 19.4063 121.902 20.7395V30.0389H119.349V26.2674H112.715V30.0389H110.195V20.7395C110.195 19.4063 111.269 18.3333 112.602 18.3333H119.479Z" fill="#ECEFF1"/>
<path fill-rule="evenodd" clip-rule="evenodd" d="M126.274 20.8696V27.5032H135.427V30.039H126.16C124.827 30.039 123.754 28.9664 123.754 27.6333V20.7395C123.754 19.4059 124.827 18.3329 126.16 18.3329H135.427V20.8696H126.274Z" fill="#ECEFF1"/>
<path fill-rule="evenodd" clip-rule="evenodd" d="M147.961 20.8696H139.702V22.9183H146.351V25.455H139.702V27.5032H147.961V30.039H137.149V18.3329H147.961V20.8696Z" fill="#ECEFF1"/>
<path fill-rule="evenodd" clip-rule="evenodd" d="M161.193 21.8286H158.641V20.8695H152.008V22.9182H158.788C160.104 22.9182 161.193 23.9913 161.193 25.3244V27.6332C161.193 28.9663 160.104 30.0389 158.788 30.0389H151.894C150.56 30.0389 149.488 28.9663 149.488 27.6332V26.5441H152.008V27.5031H158.641V25.4549H151.894C150.56 25.4549 149.488 24.3814 149.488 23.0478V20.7395C149.488 19.4063 150.56 18.3333 151.894 18.3333H158.788C160.104 18.3333 161.193 19.4063 161.193 20.7395V21.8286Z" fill="#ECEFF1"/>
</g>
<path fill-rule="evenodd" clip-rule="evenodd" d="M74.2783 0L70.2213 4.48432L64.337 3.36418L67.6114 14.7934L69.7886 28.7174L78.3727 39.0617H85.9303L94.4062 28.7457L96.6911 14.6893L100.182 3.36418L94.3514 4.48432L90.1408 0H74.2783Z" fill="#263238"/>
<path d="M89.4124 17.9119L87.1466 17.4068L88.9089 19.9325V27.7624L94.951 22.7109V14.1233L92.1817 15.1336L89.4124 17.9119Z" fill="#D0D8DC"/>
<path d="M75.3142 17.9119L77.58 17.4068L75.8177 19.9325V27.7624L69.7757 22.7109V14.1233L72.5449 15.1336L75.3142 17.9119Z" fill="#D0D8DC"/>
<path fill-rule="evenodd" clip-rule="evenodd" d="M76.573 20.4377L78.587 17.4068L79.8458 18.1645H84.8809L86.1396 17.4068L88.1537 20.4377V31.8037L86.6431 34.0769L84.8809 35.8449H79.8458L78.0835 34.0769L76.573 31.8037V20.4377Z" fill="#D0D8DC"/>
<path d="M88.9089 32.5614L92.1817 29.2779V25.9944L88.9089 28.7727V32.5614Z" fill="#D0D8DC"/>
<path d="M75.8177 32.5614L72.545 29.2779V25.9944L75.8177 28.7727V32.5614Z" fill="#D0D8DC"/>
<path fill-rule="evenodd" clip-rule="evenodd" d="M79.0905 2.75729L77.0765 7.55626L80.3493 17.1542H81.8598V2.75729H79.0905ZM82.8668 2.75729V17.1542H84.6291L87.6501 7.55626L85.6361 2.75729H82.8668Z" fill="#D0D8DC"/>
<path d="M80.3493 17.1542L69.5239 13.113L68.0134 6.79852L77.6639 7.58256L80.8808 17.1542H80.3493Z" fill="#D0D8DC"/>
<path d="M84.6291 17.1542L95.4545 13.113L96.965 6.79852L87.3145 7.58256L84.0976 17.1542H84.6291Z" fill="#D0D8DC"/>
<path d="M88.1536 6.79853L93.4405 6.29337L89.9159 2.75729H86.3914L88.1536 6.79853Z" fill="#D0D8DC"/>
<path d="M76.573 6.79853L71.2862 6.29337L74.8107 2.75729H78.3353L76.573 6.79853Z" fill="#D0D8DC"/>
</svg>

<svg width="171" height="40" fill="none" xmlns="http://www.w3.org/2000/svg"><path fill-rule="evenodd" clip-rule="evenodd" d="M0 14.706l4.51 4.575v11.574l2.707 2.692h156.06l2.705-2.692V19.192l4.511-4.486H0z" fill="#263238"/><mask id="a" maskUnits="userSpaceOnUse" x="0" y="0" width="171" height="39"><path fill-rule="evenodd" clip-rule="evenodd" d="M0 38.602h170.696V.462H0v38.14z" fill="#fff"/></mask><g mask="url(#a)" fill-rule="evenodd" clip-rule="evenodd"><path d="M12.071 23.65h6.634v-2.78H12.07v2.78zm6.763-5.3c1.333 0 2.423 1.089 2.423 2.406v3.024c0 1.317-1.09 2.406-2.423 2.406l-6.763.017c.033 0 .049.032.049.097 0 0-.033 0-.049-.017v3.756h-2.52v-11.69h9.283zm6.08 5.3h6.633v-2.78h-6.633v2.78zm9.185.13c0 1.317-1.089 2.406-2.422 2.406h-.114c.829.976 1.724 2.016 2.536 2.991v.862h-2.601l-3.235-3.853-3.35.017c.033 0 .049.032.049.097 0 0-.032 0-.048-.017v3.756h-2.52v-11.69h9.283c1.333 0 2.422 1.09 2.422 2.407v3.024zm1.738 6.26h2.537V18.332h-2.537V30.04zm14.08-11.707h2.617V30.04h-2.536v-7.853c-1.317 1.561-2.731 3.285-4.032 4.813l-4.048-4.796v7.836h-2.52V18.333h2.601l3.967 4.732 3.95-4.732zm15.411 2.537h-8.259v2.048h6.65v2.537h-6.65v2.048h8.259v2.536H54.516V18.333h10.812v2.537z" fill="#40C4FF"/><path d="M109.254 18.333v2.537h-8.26v2.049h6.65v2.536h-6.65v4.584h-2.552V18.333h10.812zm3.461 5.398h6.634V20.87h-6.634v2.862zm6.764-5.398a2.415 2.415 0 012.423 2.407v9.299h-2.553v-3.772h-6.634v3.772h-2.52v-9.3a2.402 2.402 0 012.407-2.406h6.877zm6.795 2.537v6.633h9.153v2.536h-9.267a2.4 2.4 0 01-2.406-2.406V20.74a2.4 2.4 0 012.406-2.407h9.267v2.537h-9.153zm21.687 0h-8.259v2.048h6.649v2.537h-6.649v2.048h8.259v2.536h-10.812V18.333h10.812v2.537zm13.232.959h-2.552v-.96h-6.633v2.05h6.78a2.41 2.41 0 012.405 2.405v2.31a2.41 2.41 0 01-2.405 2.405h-6.894a2.4 2.4 0 01-2.406-2.406v-1.089h2.52v.96h6.633v-2.05h-6.747a2.4 2.4 0 01-2.406-2.406V20.74a2.4 2.4 0 012.406-2.407h6.894a2.41 2.41 0 012.405 2.407v1.089z" fill="#ECEFF1"/></g><path fill-rule="evenodd" clip-rule="evenodd" d="M74.278 0l-4.057 4.484-5.884-1.12 3.274 11.43 2.178 13.923 8.584 10.345h7.557l8.476-10.316 2.285-14.057 3.491-11.325-5.83 1.12L90.14 0H74.278z" fill="#263238"/><path d="M89.412 17.912l-2.265-.505 1.762 2.526v7.83l6.042-5.052v-8.588l-2.77 1.01-2.769 2.779zm-14.098 0l2.266-.505-1.762 2.526v7.83l-6.042-5.052v-8.588l2.769 1.01 2.77 2.779z" fill="#D0D8DC"/><path fill-rule="evenodd" clip-rule="evenodd" d="M76.573 20.438l2.014-3.031 1.259.758h5.035l1.259-.758 2.014 3.03v11.367l-1.51 2.273-1.763 1.768h-5.035l-1.763-1.768-1.51-2.273V20.438z" fill="#D0D8DC"/><path d="M88.909 32.561l3.273-3.283v-3.284l-3.273 2.779v3.788zm-13.091 0l-3.273-3.283v-3.284l3.273 2.779v3.788z" fill="#D0D8DC"/><path fill-rule="evenodd" clip-rule="evenodd" d="M79.09 2.757l-2.014 4.8 3.273 9.597h1.51V2.757h-2.768zm3.777 0v14.397h1.762l3.021-9.598-2.014-4.799h-2.77z" fill="#D0D8DC"/><path d="M80.35 17.154l-10.826-4.041-1.51-6.314 9.65.784 3.217 9.571h-.532zm4.28 0l10.825-4.041 1.51-6.314-9.65.784-3.217 9.571h.531zm3.524-10.355l5.287-.506-3.525-3.536H86.39L88.154 6.8zm-11.581 0l-5.287-.506 3.525-3.536h3.524L76.573 6.8z" fill="#D0D8DC"/></svg>
